src/assets/howItWorks/ChicagoTribune.svg

<svg xmlns="http://www.w3.org/2000/svg" width="162" height="25" viewBox="0 0 162 25" fill="none">
<path fill-rule="evenodd" clip-rule="evenodd" d="M97.008 5.06545C99.5143 5.06545 100.487 2.95994 100.791 0.594937L100.599 0.447257C100.116 1.44305 99.1662 1.98525 98.1409 1.98525C96.5322 1.98525 94.8726 1.51939 93.1613 1.03901C91.3399 0.527725 89.4599 0 87.5205 0C84.8011 0 82.7779 1.6498 82.7779 4.16459C82.7779 5.89246 83.7146 6.70893 84.4656 7.0486L84.8074 6.85871C84.4002 6.67517 83.761 6.32495 83.761 5.5106C83.761 4.1646 85.0922 3.44306 86.8581 3.44306C88.1914 3.44306 89.7394 3.80186 91.3581 4.17704C92.7924 4.50949 94.2822 4.8548 95.7273 4.97473V19.0382C95.0776 19.1373 94.8096 19.1668 94.2294 19.1668C92.5417 19.1668 90.9193 18.7829 89.8075 18.0128C90.7716 17.2744 92.6746 15.9791 93.8033 15.3588V5.23423C92.5353 6.01905 90.4741 7.03593 89.3581 7.49796V7.60344C90.1957 7.90935 90.318 8.97477 90.318 10.4263V17.3082L89.5501 17.7997C87.8201 16.4305 86.6872 14.5909 86.6872 11.8166C86.6872 8.48953 87.8897 6.3777 89.5923 4.82705L89.3792 4.74266C86.9403 5.60554 83.204 8.86928 83.204 13.3946C83.204 18.65 87.0269 21.9032 91.9657 21.9032C95.8729 21.9032 99.027 19.3947 100.173 17.7533L100.065 17.477C99.3308 18.0656 97.4784 18.8019 95.9615 19.0149V5.00005C96.1535 5.02115 96.7105 5.06545 97.008 5.06545ZM29.6418 17.9795L26.9265 20.7812C26.3717 20.3509 25.2578 19.5998 24.513 19.2011V9.79804C23.9244 9.5301 23.1206 8.9436 22.783 8.62292L21.821 9.62715V17.9184L23.167 18.6842V18.7517L21.1796 20.7812C20.4244 20.1399 19.1206 19.3023 18.1016 18.7749V18.7306C18.4644 18.3888 18.7218 17.7876 18.7218 16.6378V2.53215C18.7218 1.47083 18.5321 1.1477 18.3205 0.787392L18.3167 0.781075L18.4644 0.717786C18.9349 1.12496 19.2281 1.46884 19.3421 2.19037H19.3864C20.0742 1.04268 20.9286 0.289509 22.5911 0.0764281L22.6333 0.162927C22.1691 0.728332 21.821 1.34648 21.821 2.29797V9.22208L24.4708 6.42247C25.3674 7.17142 26.8843 8.34654 28.2093 9.03009V9.09128C27.8464 9.47947 27.6333 10.2242 27.6333 11.5111V17.9795L28.6375 18.623L29.4498 17.7918L29.6418 17.9795ZM33.958 2.27492C33.266 2.7707 32.5255 3.5513 32.0993 4.17578C31.6141 3.56607 30.7871 2.8361 30.1562 2.4036C30.7786 1.91626 31.7238 0.947909 32.0993 0.416258C32.4748 0.943689 33.3905 1.8382 33.958 2.27492ZM45.2558 7.17298C45.1545 8.45991 44.1693 9.75739 42.798 9.75739C41.5195 9.75739 40.7304 9.23839 40.2979 8.32699L40.127 8.43249V17.0887C40.857 17.479 41.9963 18.1646 42.6271 18.5845L43.9942 17.1752L44.2072 17.363L40.9372 20.7617C39.4878 19.7132 37.4878 18.5001 36.2578 17.9199V17.8545C36.8359 17.4959 37.049 16.9347 37.049 15.5697V9.6498C39.2916 8.77638 41.0659 7.53374 42.3275 6.42402C42.5743 6.8312 43.1418 7.34176 43.8655 7.34176C44.4667 7.34176 44.9372 7.20674 45.1714 7.04218L45.2558 7.17298ZM33.1852 20.7812L35.9194 17.9416L35.7064 17.7454L34.9152 18.5829L33.8899 17.9416V10.4816C33.8899 9.50056 34.0924 8.65246 34.5313 8.38875V8.34654C33.449 7.75793 32.1557 6.88661 31.5186 6.36129L28.8477 9.15879L29.0396 9.34866L29.8308 8.53853L30.8118 9.22208V17.0196C30.8118 17.853 30.5354 18.5154 30.1304 18.6842V18.7517C31.2042 19.3466 32.4764 20.18 33.1852 20.7812ZM12.46 19.0108C12.6393 19.0108 12.8167 19.004 12.9922 18.9908V4.19499C12.232 3.99531 11.6996 3.58336 11.1984 3.00641L11.0908 3.0275V15.3378C9.95367 15.9749 8.09713 17.2471 7.2026 17.9222C8.53384 18.842 10.4748 19.0108 12.46 19.0108ZM13.2264 4.2483V18.9694C14.7742 18.8017 16.1733 18.1391 17.4601 17.2407L17.5656 17.5593C16.1816 19.1711 13.5697 21.8125 9.53173 21.8125C4.0359 21.8125 0 18.0783 0 11.7048C0 5.85454 4.82493 2.61189 7.94944 1.40513L8.20683 1.53381C5.25954 3.48742 3.67513 5.85242 3.67513 9.97271C3.67513 13.6078 4.97895 16.1964 6.94521 17.7091L7.60766 17.2597V8.15624C7.60766 6.51276 7.31018 5.35875 6.81651 4.95579V4.82289C9.23214 3.69418 11.7322 1.9178 13.4643 0.335505C13.998 0.959985 14.6605 1.23424 15.4938 1.23424C16.401 1.23424 17.0107 0.91356 17.4158 0.616089L17.5656 0.742668C17.4854 2.60133 16.498 4.33132 14.1689 4.33132C13.8191 4.33132 13.5077 4.30298 13.2264 4.2483ZM74.1462 9.94995V18.796L73.8087 18.988C72.91 18.2833 71.9521 17.5492 71.4563 17.258V8.41195L71.7981 8.21997C72.2601 8.59339 73.4247 9.50268 74.1462 9.94995ZM77.2707 11.1061C77.2707 9.88454 77.5239 9.2875 77.9543 9.0934V9.0322C76.7792 8.41195 74.8762 7.10815 73.9142 6.4035C72.4163 7.49212 70.3023 8.81913 68.3593 9.75795V16.0407C68.3593 17.1504 68.0808 17.8551 67.6525 18.1146V18.1757C69.2264 19.0335 70.0206 19.6143 71.3507 20.587L71.6483 20.8045C73.1019 19.6462 76.0007 18.0281 77.2707 17.4711V11.1061ZM62.3752 18.116V9.86702C61.333 9.22356 60.4321 8.56532 60.0038 8.19823L59.6832 8.39233V17.1962C60.2064 17.4958 61.3182 18.2975 61.8203 18.6709L62.3752 18.116ZM66.755 19.7806C66.755 20.5463 65.754 21.3476 64.6063 22.2664C64.5049 22.3476 64.4023 22.4296 64.2992 22.5127C62.6368 23.8608 61.7781 24.5043 61.7781 24.5043C60.9532 24.038 60.4785 23.9051 59.257 23.9051C57.7148 23.9051 56.8414 24.0655 55.7527 24.5043L55.6873 24.4811C56.565 22.846 58.3076 21.4895 60.7507 21.4895C61.8414 21.4895 63.0735 21.9431 63.8731 22.4747C64.0862 22.3397 64.7697 21.8397 64.7697 21.4705C64.7697 20.9909 64.3817 20.7417 63.9178 20.4438C63.3247 20.0629 62.6077 19.6024 62.4195 18.4789L60.1114 20.8059C59.0967 20.0042 57.0397 18.692 55.9426 18.116V18.0295C56.4152 17.7278 56.6072 17.3207 56.6072 16.2764V9.75942C58.8688 8.56743 60.9406 7.37333 62.2064 6.40497C63.198 7.22987 65.1199 8.4535 66.179 9.03367V9.09487C65.6896 9.39656 65.5166 9.86702 65.5166 11.5759V16.7468C65.5166 17.654 65.8562 18.0501 66.1798 18.4275C66.474 18.7707 66.755 19.0983 66.755 19.7806ZM50.2237 12.7875V18.4964L49.5844 18.9416C48.2152 18.5154 47.3186 17.2306 47.3186 15.9753C47.3186 14.3276 48.365 13.009 50.2237 12.7875ZM50.2237 9.96891V12.5132C49.7848 12.5639 48.9241 12.7306 48.557 12.8571C47.5485 11.8445 47.3397 9.87399 47.2342 8.36765L47.576 8.15244C48.1583 8.62291 49.4621 9.53009 50.2237 9.96891ZM52.8524 20.7602L55.5887 18.0049L55.3756 17.7918L54.5845 18.604L53.3461 17.8108V11.3592C53.3461 10.144 53.4937 9.67145 54.0718 9.28537V9.22208C52.8967 8.56174 50.7828 7.18831 49.8608 6.40138L45.1603 9.30647C45.4894 10.9288 46.6878 12.2727 48.1519 12.9816V13.0048C46.4515 13.6166 44.6055 14.796 44.6055 17.0871C44.6055 18.7876 45.9093 20.2475 47.5317 20.7812C48.0199 20.4376 48.4633 20.1166 48.9142 19.7902C49.2992 19.5115 49.6897 19.2288 50.1182 18.9247H50.1393C50.8819 19.2876 52.1857 20.2053 52.8524 20.7602ZM152.444 18.0242L149.708 20.8006C149.022 20.2605 147.912 19.5453 147.294 19.1993V9.73297C146.839 9.4566 146.136 8.92073 145.841 8.66335L144.558 9.96715V17.9398C144.978 18.1212 145.583 18.4904 145.883 18.7077V18.7731L143.898 20.8006C143.174 20.1951 141.887 19.3723 140.796 18.7921V18.7288C141.246 18.4736 141.461 17.9398 141.461 16.7183V9.77517L139.988 8.60006L139.195 9.41231L139.001 9.22031L141.737 6.4207C142.216 6.93126 143.583 8.04308 144.558 8.64225V9.4777L147.463 6.4207C148.469 7.21185 150.092 8.24984 151.033 8.81524V8.88064C150.52 9.15702 150.37 9.84058 150.37 11.0579V17.9398L151.438 18.6445L152.25 17.8301L152.444 18.0242ZM137.529 20.7795L140.244 17.9609L140.074 17.79L139.306 18.5812L137.936 17.809V10.2646C137.936 9.15703 138.126 8.64858 138.601 8.42917V8.38698C137.822 7.9566 136.299 7.03041 135.542 6.4207C135.088 7.00932 134.092 7.97347 133.554 8.42917V8.49246C133.867 8.64225 134.502 8.97981 134.837 9.24142C134.835 11.463 134.837 17.5305 134.837 17.5305L133.599 18.6824C133.084 18.2795 132.466 17.8617 132.147 17.6824V8.0241C131.407 7.6781 130.276 6.87218 129.753 6.4207L127.04 9.24142L127.253 9.43339L128.086 8.57685L129.069 9.26461V16.271C129.069 17.617 128.936 18.1845 128.365 18.4947V18.5601C129.474 19.1107 130.521 19.7753 131.761 20.8006L134.858 17.9778V18.963C135.578 19.3639 136.799 20.1824 137.529 20.7795ZM114.055 2.29625C113.424 2.73507 112.576 3.67179 112.194 4.19922C111.892 3.82791 111.105 2.99668 110.293 2.38275C110.835 1.94181 111.772 0.977657 112.194 0.355288C112.624 0.901707 113.54 1.85953 114.055 2.29625ZM113.326 20.8045L116.063 17.9648L115.871 17.7707L115.056 18.6061L113.989 17.9648V10.2305C113.989 9.09339 114.191 8.67356 114.63 8.41195V8.36976C113.852 7.96891 112.366 7.10392 111.617 6.3824L108.944 9.16091L109.138 9.35078L109.909 8.56385L110.913 9.26849V16.9162C110.913 17.8129 110.719 18.4099 110.248 18.7116V18.777C111.141 19.2412 112.51 20.1505 113.326 20.8045ZM109.127 7.27324C109.03 8.38507 108.037 9.81966 106.798 9.81966C105.893 9.81966 105.197 9.4125 104.726 8.74793L104.406 9.07072V17.383C105.159 17.7396 106.144 18.3303 106.562 18.6024L107.353 17.7902L107.568 17.978L104.792 20.8008C103.503 19.8261 101.752 18.7185 100.709 18.1953V18.1721C101.165 18.0096 101.351 17.6362 101.351 16.8957V9.75427L99.9816 8.56016L99.2136 9.3914L99.0195 9.1973L101.648 6.4209C102.433 7.28588 103.75 8.28801 104.363 8.72894L106.543 6.44411C106.952 6.94833 107.399 7.38083 108.167 7.38083C108.465 7.38083 108.785 7.29644 109.022 7.19096L109.127 7.27324ZM159.135 11.9797C158.696 11.3573 157.312 9.29614 156.7 8.32777L156.487 8.49656V13.7519L159.135 11.9797ZM162 10.505C160.219 11.5957 158.101 12.9966 156.487 14.1591V17.176C157.2 17.4945 158.426 18.2519 158.987 18.6253L160.439 17.1296L160.631 17.3026L157.236 20.8047C156.181 20.0431 154.118 18.7287 152.66 17.9439V17.8806C153.129 17.7477 153.39 17.0663 153.39 15.5705V9.75817C155.396 8.85943 157.255 7.62314 158.751 6.40372L162 10.505ZM123.007 9.82335V18.777L122.6 18.988L120.313 17.239V9.62927L121.317 8.66723L123.007 9.82335ZM126.127 11.5132C126.127 9.99214 126.265 9.3339 126.788 9.1166V9.05331C125.769 8.4225 123.733 7.13345 122.942 6.42459L120.313 9.2242V2.40767C120.313 1.30218 120.642 0.795852 121.104 0.226226L121.081 0.0996481C119.423 0.31062 118.566 1.04691 117.878 2.19249H117.834C117.707 1.57434 117.408 1.12496 116.959 0.740989L116.828 0.806404C117.043 1.19037 117.214 1.68193 117.214 2.64185V15.4605C117.214 17.1947 117.127 17.7707 116.507 18.1146V18.1757C117.834 18.9627 119.475 20.0872 120.505 20.8045C121.872 19.5028 124.8 17.9817 126.127 17.5175V11.5132Z" fill="#ABB0C1"/>
</svg>

<svg xmlns="http://www.w3.org/2000/svg" width="162" height="25" fill="none">
  <path fill="#ABB0C1" fill-rule="evenodd" d="M97.008 5.065c2.506 0 3.479-2.105 3.783-4.47l-.192-.148a2.69 2.69 0 0 1-2.458 1.538c-1.609 0-3.268-.466-4.98-.946C91.34.528 89.46 0 87.521 0c-2.72 0-4.743 1.65-4.743 4.165 0 1.727.937 2.544 1.688 2.884l.341-.19c-.407-.184-1.046-.534-1.046-1.348 0-1.346 1.331-2.068 3.097-2.068 1.333 0 2.881.359 4.5.734 1.434.332 2.924.678 4.37.798v14.063c-.65.1-.918.129-1.499.129-1.687 0-3.31-.384-4.421-1.154.964-.739 2.867-2.034 3.995-2.654V5.234c-1.268.785-3.329 1.802-4.445 2.264v.105c.838.306.96 1.372.96 2.823v6.882l-.768.492c-1.73-1.37-2.863-3.21-2.863-5.983 0-3.327 1.203-5.44 2.905-6.99l-.213-.084c-2.439.863-6.175 4.126-6.175 8.652 0 5.255 3.823 8.508 8.762 8.508 3.907 0 7.061-2.508 8.207-4.15l-.108-.276c-.734.589-2.587 1.325-4.103 1.538V5c.191.021.748.065 1.046.065M29.642 17.98l-2.715 2.801c-.555-.43-1.67-1.181-2.414-1.58V9.798c-.589-.268-1.392-.854-1.73-1.175l-.962 1.004v8.291l1.346.766v.068l-1.987 2.03c-.756-.642-2.06-1.48-3.078-2.007v-.044c.362-.342.62-.943.62-2.093V2.532c0-1.061-.19-1.384-.402-1.745l-.003-.006.147-.063c.47.407.764.75.878 1.472h.044c.688-1.147 1.543-1.9 3.205-2.114l.042.087c-.464.565-.812 1.183-.812 2.135v6.924l2.65-2.8c.896.75 2.413 1.925 3.738 2.608v.061c-.363.388-.576 1.133-.576 2.42v6.469l1.005.643.812-.831zm4.316-15.705a8.5 8.5 0 0 0-1.859 1.9c-.485-.609-1.312-1.339-1.943-1.771C30.78 1.916 31.724.948 32.1.416c.376.528 1.292 1.422 1.859 1.859m11.298 4.898c-.102 1.287-1.087 2.584-2.458 2.584-1.279 0-2.068-.519-2.5-1.43l-.171.105v8.657c.73.39 1.87 1.076 2.5 1.495l1.367-1.409.213.188-3.27 3.399c-1.45-1.049-3.45-2.262-4.68-2.842v-.066c.579-.358.792-.92.792-2.284V9.65a17.9 17.9 0 0 0 5.279-3.226c.246.407.814.918 1.537.918.602 0 1.072-.135 1.306-.3zm-12.07 13.608 2.733-2.84-.213-.196-.79.838-1.026-.641v-7.46c0-.981.202-1.83.641-2.093v-.042c-1.082-.59-2.375-1.46-3.012-1.986L28.848 9.16l.192.19.79-.81.982.683v7.798c0 .833-.277 1.495-.682 1.664v.068c1.074.595 2.346 1.428 3.055 2.03m-20.726-1.77q.27 0 .532-.02V4.195c-.76-.2-1.292-.612-1.794-1.189l-.107.022v12.31c-1.137.637-2.994 1.91-3.888 2.584 1.33.92 3.272 1.089 5.257 1.089m.766-14.763V18.97c1.548-.167 2.947-.83 4.234-1.728l.106.318c-1.384 1.612-3.996 4.253-8.034 4.253C4.036 21.813 0 18.079 0 11.706c0-5.85 4.825-9.093 7.95-10.3l.257.129C5.26 3.487 3.675 5.852 3.675 9.973c0 3.635 1.304 6.223 3.27 7.736l.663-.45V8.157c0-1.643-.298-2.797-.791-3.2v-.133c2.415-1.129 4.915-2.905 6.647-4.487.534.624 1.197.898 2.03.898a3.13 3.13 0 0 0 1.922-.618l.15.127c-.08 1.858-1.068 3.588-3.397 3.588-.35 0-.661-.028-.943-.083m60.92 5.702v8.846l-.337.192c-.899-.705-1.857-1.439-2.353-1.73V8.412l.342-.192c.462.373 1.627 1.283 2.348 1.73m3.125 1.156c0-1.221.253-1.819.683-2.013v-.06c-1.175-.621-3.078-1.925-4.04-2.63-1.498 1.09-3.612 2.416-5.555 3.355v6.283c0 1.11-.278 1.814-.706 2.074v.06c1.573.858 2.368 1.44 3.698 2.412l.297.218c1.454-1.159 4.353-2.777 5.623-3.334zm-14.896 7.01V9.867c-1.042-.643-1.943-1.302-2.371-1.669l-.32.194v8.804c.522.3 1.634 1.101 2.136 1.475zm4.38 1.665c0 .765-1.001 1.567-2.149 2.485l-.307.247c-1.662 1.348-2.52 1.991-2.52 1.991-.826-.466-1.3-.599-2.522-.599-1.542 0-2.416.16-3.504.6l-.066-.024c.878-1.635 2.62-2.992 5.064-2.992 1.09 0 2.323.454 3.122.986.213-.135.897-.635.897-1.005 0-.48-.388-.728-.852-1.026-.593-.381-1.31-.842-1.498-1.965l-2.309 2.327c-1.014-.802-3.071-2.114-4.168-2.69v-.087c.472-.301.664-.708.664-1.753V9.76c2.262-1.192 4.334-2.386 5.6-3.354.991.825 2.913 2.048 3.972 2.629v.06c-.49.303-.662.773-.662 2.482v5.17c0 .908.34 1.304.663 1.681.294.344.575.671.575 1.354m-16.531-6.993v5.708l-.64.446c-1.369-.427-2.265-1.711-2.265-2.967 0-1.647 1.046-2.966 2.905-3.187m0-2.82v2.545c-.44.05-1.3.218-1.667.344-1.009-1.012-1.217-2.983-1.323-4.49l.342-.215c.582.47 1.886 1.378 2.648 1.817m2.628 10.792 2.737-2.755-.213-.213-.791.812-1.239-.793v-6.452c0-1.215.148-1.688.726-2.074v-.063c-1.175-.66-3.29-2.034-4.211-2.82l-4.7 2.904c.328 1.623 1.527 2.967 2.99 3.676v.023c-1.7.612-3.546 1.791-3.546 4.082 0 1.7 1.304 3.16 2.927 3.694.488-.343.931-.664 1.382-.99.385-.28.776-.562 1.204-.866h.021c.743.363 2.047 1.28 2.713 1.835m99.592-2.736-2.736 2.777a23 23 0 0 0-2.414-1.602V9.733a14 14 0 0 1-1.453-1.07l-1.283 1.304v7.973c.42.181 1.025.55 1.325.768v.065l-1.985 2.028c-.724-.606-2.011-1.429-3.102-2.009v-.063c.45-.255.665-.79.665-2.01V9.774L139.988 8.6l-.793.812-.194-.192 2.736-2.8c.479.511 1.846 1.623 2.821 2.222v.836l2.905-3.057c1.006.79 2.629 1.829 3.57 2.394v.066c-.513.276-.663.96-.663 2.177v6.882l1.068.704.812-.814zm-14.915 2.755 2.715-2.818-.17-.171-.768.791-1.37-.772v-7.544c0-1.108.19-1.616.665-1.836v-.042c-.779-.43-2.302-1.357-3.059-1.966-.454.588-1.45 1.552-1.988 2.008v.063c.313.15.948.488 1.283.75-.002 2.221 0 8.289 0 8.289l-1.238 1.151a14 14 0 0 0-1.452-1v-9.66c-.74-.346-1.871-1.152-2.394-1.603l-2.713 2.82.213.192.833-.856.983.688v7.006c0 1.346-.133 1.913-.704 2.224v.065c1.109.55 2.156 1.215 3.396 2.24l3.097-2.822v.985c.72.4 1.941 1.22 2.671 1.816M114.055 2.296c-.631.44-1.479 1.376-1.861 1.903a12.8 12.8 0 0 0-1.901-1.816c.542-.441 1.479-1.405 1.901-2.028.43.547 1.346 1.505 1.861 1.941m-.729 18.509 2.737-2.84-.192-.194-.815.835-1.067-.641V10.23c0-1.137.202-1.556.641-1.818V8.37c-.778-.401-2.264-1.266-3.013-1.988l-2.673 2.779.194.19.771-.787 1.004.704v7.648c0 .897-.194 1.494-.665 1.796v.065c.893.464 2.262 1.374 3.078 2.027m-4.199-13.532c-.097 1.112-1.09 2.547-2.329 2.547-.905 0-1.601-.408-2.072-1.072l-.32.323v8.312c.753.357 1.738.947 2.156 1.22l.791-.813.215.188-2.776 2.823c-1.289-.975-3.04-2.082-4.083-2.606v-.023c.456-.162.642-.536.642-1.276V9.754l-1.37-1.194-.767.831-.195-.194 2.629-2.776c.785.865 2.102 1.867 2.715 2.308l2.18-2.285c.409.504.856.937 1.624.937.298 0 .618-.085.855-.19zm50.008 4.707a133 133 0 0 1-2.435-3.652l-.213.169v5.255zM162 10.505a96 96 0 0 0-5.513 3.654v3.017c.713.319 1.939 1.076 2.5 1.45l1.452-1.496.192.173-3.395 3.502c-1.055-.762-3.118-2.076-4.576-2.861v-.063c.469-.133.73-.815.73-2.31V9.758c2.006-.899 3.865-2.135 5.361-3.354zm-38.993-.682v8.954l-.407.211-2.287-1.749v-7.61l1.004-.962zm3.12 1.69c0-1.52.138-2.18.661-2.396v-.064c-1.019-.63-3.055-1.92-3.846-2.628l-2.629 2.8V2.407c0-1.106.329-1.612.791-2.182L121.081.1c-1.658.21-2.515.947-3.203 2.092h-.044c-.127-.618-.426-1.067-.875-1.451l-.131.065c.215.384.386.876.386 1.836V15.46c0 1.734-.087 2.31-.707 2.654v.06c1.327.788 2.968 1.912 3.998 2.63 1.367-1.302 4.295-2.823 5.622-3.288z" clip-rule="evenodd"/>
</svg>
